svg/azure-redis.svg

<?xml version="1.0" encoding="UTF-8"?>
<svg xmlns="http://www.w3.org/2000/svg" xmlns:xlink="http://www.w3.org/1999/xlink" width="32" height="32" viewBox="0 0 32 32">
<defs>
<linearGradient id="linear-pattern-0" gradientUnits="userSpaceOnUse" x1="9.5" y1="7.37" x2="17.5" y2="7.37" gradientTransform="matrix(1.777778, 0.00266842, -0.00266842, 1.777778, 0, 0)">
<stop offset="0" stop-color="rgb(0%, 35.686275%, 63.137255%)" stop-opacity="1"/>
<stop offset="0.07" stop-color="rgb(0%, 37.647059%, 66.27451%)" stop-opacity="1"/>
<stop offset="0.36" stop-color="rgb(0%, 44.313725%, 78.431373%)" stop-opacity="1"/>
<stop offset="0.52" stop-color="rgb(0%, 47.058824%, 83.137255%)" stop-opacity="1"/>
<stop offset="1" stop-color="rgb(0%, 35.686275%, 63.137255%)" stop-opacity="1"/>
</linearGradient>
<linearGradient id="linear-pattern-1" gradientUnits="userSpaceOnUse" x1="0.5" y1="7.37" x2="8.5" y2="7.37" gradientTransform="matrix(1.777778, 0.00266842, -0.00266842, 1.777778, 0, 0)">
<stop offset="0" stop-color="rgb(0%, 35.686275%, 63.137255%)" stop-opacity="1"/>
<stop offset="0.07" stop-color="rgb(0%, 37.647059%, 66.27451%)" stop-opacity="1"/>
<stop offset="0.36" stop-color="rgb(0%, 44.313725%, 78.431373%)" stop-opacity="1"/>
<stop offset="0.52" stop-color="rgb(0%, 47.058824%, 83.137255%)" stop-opacity="1"/>
<stop offset="1" stop-color="rgb(0%, 35.686275%, 63.137255%)" stop-opacity="1"/>
</linearGradient>
<linearGradient id="linear-pattern-2" gradientUnits="userSpaceOnUse" x1="5" y1="11.9" x2="13" y2="11.9" gradientTransform="matrix(1.777778, 0.00266842, -0.00266842, 1.777778, 0, 0)">
<stop offset="0" stop-color="rgb(0%, 35.686275%, 63.137255%)" stop-opacity="1"/>
<stop offset="0.07" stop-color="rgb(0%, 37.647059%, 66.27451%)" stop-opacity="1"/>
<stop offset="0.36" stop-color="rgb(0%, 44.313725%, 78.431373%)" stop-opacity="1"/>
<stop offset="0.52" stop-color="rgb(0%, 47.058824%, 83.137255%)" stop-opacity="1"/>
<stop offset="1" stop-color="rgb(0%, 35.686275%, 63.137255%)" stop-opacity="1"/>
</linearGradient>
</defs>
<path fill-rule="nonzero" fill="url(#linear-pattern-0)" d="M 24 8.214844 C 20.070312 8.214844 16.890625 7.199219 16.890625 5.9375 L 16.890625 18.007812 C 16.890625 19.234375 20.019531 20.25 23.910156 20.265625 L 24 20.265625 C 27.929688 20.265625 31.109375 19.253906 31.109375 18.007812 L 31.109375 5.9375 C 31.109375 7.199219 27.929688 8.214844 24 8.214844 "/>
<path fill-rule="nonzero" fill="rgb(90.980392%, 90.980392%, 90.980392%)" fill-opacity="1" d="M 31.109375 5.9375 C 31.109375 7.199219 27.929688 8.214844 24 8.214844 C 20.070312 8.214844 16.890625 7.199219 16.890625 5.9375 C 16.890625 4.675781 20.070312 3.679688 24 3.679688 C 27.929688 3.679688 31.109375 4.691406 31.109375 5.9375 "/>
<path fill-rule="nonzero" fill="rgb(31.372549%, 90.196078%, 100%)" fill-opacity="1" d="M 29.457031 5.761719 C 29.457031 6.558594 27.003906 7.199219 24 7.199219 C 20.996094 7.199219 18.542969 6.558594 18.542969 5.761719 C 18.542969 4.960938 20.996094 4.320312 24 4.320312 C 27.003906 4.320312 29.457031 4.960938 29.457031 5.761719 "/>
<path fill-rule="nonzero" fill="rgb(19.607843%, 74.509804%, 86.666667%)" fill-opacity="1" d="M 24 6.097656 C 22.542969 6.070312 21.085938 6.25 19.679688 6.632812 C 21.082031 7.046875 22.539062 7.238281 24 7.199219 C 25.460938 7.238281 26.917969 7.046875 28.320312 6.632812 C 26.914062 6.25 25.457031 6.070312 24 6.097656 "/>
<path fill-rule="nonzero" fill="url(#linear-pattern-1)" d="M 8 8.214844 C 4.070312 8.214844 0.890625 7.199219 0.890625 5.9375 L 0.890625 18.007812 C 0.890625 19.234375 4.019531 20.25 8 20.265625 C 11.929688 20.265625 15.109375 19.253906 15.109375 18.007812 L 15.109375 5.9375 C 15.109375 7.199219 11.929688 8.214844 8 8.214844 "/>
<path fill-rule="nonzero" fill="rgb(90.980392%, 90.980392%, 90.980392%)" fill-opacity="1" d="M 15.109375 5.9375 C 15.109375 7.199219 11.929688 8.214844 8 8.214844 C 4.070312 8.214844 0.890625 7.199219 0.890625 5.9375 C 0.890625 4.675781 4.070312 3.679688 8 3.679688 C 11.929688 3.679688 15.109375 4.691406 15.109375 5.9375 "/>
<path fill-rule="nonzero" fill="rgb(31.372549%, 90.196078%, 100%)" fill-opacity="1" d="M 13.457031 5.761719 C 13.457031 6.558594 11.003906 7.199219 8 7.199219 C 4.996094 7.199219 2.542969 6.558594 2.542969 5.761719 C 2.542969 4.960938 4.996094 4.320312 8 4.320312 C 11.003906 4.320312 13.457031 4.960938 13.457031 5.761719 "/>
<path fill-rule="nonzero" fill="rgb(19.607843%, 74.509804%, 86.666667%)" fill-opacity="1" d="M 8 6.097656 C 6.542969 6.070312 5.085938 6.25 3.679688 6.632812 C 5.082031 7.046875 6.539062 7.238281 8 7.199219 C 9.460938 7.238281 10.917969 7.046875 12.320312 6.632812 C 10.914062 6.25 9.457031 6.070312 8 6.097656 "/>
<path fill-rule="nonzero" fill="url(#linear-pattern-2)" d="M 16 16.265625 C 12.070312 16.265625 8.890625 15.253906 8.890625 13.992188 L 8.890625 26.0625 C 8.890625 27.308594 12.019531 28.300781 15.910156 28.320312 L 16 28.320312 C 19.929688 28.320312 23.109375 27.308594 23.109375 26.0625 L 23.109375 13.992188 C 23.109375 15.253906 19.929688 16.265625 16 16.265625 "/>
<path fill-rule="nonzero" fill="rgb(90.980392%, 90.980392%, 90.980392%)" fill-opacity="1" d="M 23.109375 13.992188 C 23.109375 15.253906 19.929688 16.265625 16 16.265625 C 12.070312 16.265625 8.890625 15.253906 8.890625 13.992188 C 8.890625 12.730469 12.070312 11.734375 16 11.734375 C 19.929688 11.734375 23.109375 12.746094 23.109375 13.992188 "/>
<path fill-rule="nonzero" fill="rgb(31.372549%, 90.196078%, 100%)" fill-opacity="1" d="M 21.457031 13.8125 C 21.457031 14.613281 19.003906 15.253906 16 15.253906 C 12.996094 15.253906 10.542969 14.613281 10.542969 13.8125 C 10.542969 13.011719 12.996094 12.445312 16 12.445312 C 19.003906 12.445312 21.457031 13.085938 21.457031 13.882812 "/>
<path fill-rule="nonzero" fill="rgb(19.607843%, 74.509804%, 86.666667%)" fill-opacity="1" d="M 16 14.222656 C 14.542969 14.195312 13.089844 14.375 11.679688 14.753906 C 13.085938 15.148438 14.542969 15.316406 16 15.253906 C 17.460938 15.292969 18.917969 15.101562 20.320312 14.683594 C 18.910156 14.328125 17.453125 14.171875 16 14.222656 "/>
</svg>

<svg role="img" viewBox="0 0 32 32" height="32" width="32" xmlns="http://www.w3.org/2000/svg"><defs><linearGradient gradientTransform="rotate(.086)scale(1.77778)" gradientUnits="userSpaceOnUse" id="1406__1403__437__434__282__279__17__14__286__283__281__278__11__8__201__198__99__96__175__172__17__14__azure-redis_svg__svg/azure-redis.svg339__svg/azure-redis.svg333__azure-redis-lp-0" x1="9.5" x2="17.5" y1="7.37" y2="7.37"><stop offset="0" stop-color="rgb(0%, 35.686275%, 63.137255%)"/><stop offset=".07" stop-color="rgb(0%, 37.647059%, 66.27451%)"/><stop offset=".36" stop-color="rgb(0%, 44.313725%, 78.431373%)"/><stop offset=".52" stop-color="rgb(0%, 47.058824%, 83.137255%)"/><stop offset="1" stop-color="rgb(0%, 35.686275%, 63.137255%)"/></linearGradient><linearGradient gradientTransform="rotate(.086)scale(1.77778)" gradientUnits="userSpaceOnUse" id="1407__1404__438__435__283__280__18__15__287__284__282__279__12__9__202__199__100__97__176__173__18__15__azure-redis_svg__svg/azure-redis.svg341__svg/azure-redis.svg335__azure-redis-lp-1" x1=".5" x2="8.5" y1="7.37" y2="7.37"><stop offset="0" stop-color="rgb(0%, 35.686275%, 63.137255%)"/><stop offset=".07" stop-color="rgb(0%, 37.647059%, 66.27451%)"/><stop offset=".36" stop-color="rgb(0%, 44.313725%, 78.431373%)"/><stop offset=".52" stop-color="rgb(0%, 47.058824%, 83.137255%)"/><stop offset="1" stop-color="rgb(0%, 35.686275%, 63.137255%)"/></linearGradient><linearGradient gradientTransform="rotate(.086)scale(1.77778)" gradientUnits="userSpaceOnUse" id="1408__1405__439__436__284__281__19__16__288__285__283__280__13__10__203__200__101__98__177__174__19__16__azure-redis_svg__svg/azure-redis.svg343__svg/azure-redis.svg337__azure-redis-lp-2" x1="5" x2="13" y1="11.9" y2="11.9"><stop offset="0" stop-color="rgb(0%, 35.686275%, 63.137255%)"/><stop offset=".07" stop-color="rgb(0%, 37.647059%, 66.27451%)"/><stop offset=".36" stop-color="rgb(0%, 44.313725%, 78.431373%)"/><stop offset=".52" stop-color="rgb(0%, 47.058824%, 83.137255%)"/><stop offset="1" stop-color="rgb(0%, 35.686275%, 63.137255%)"/></linearGradient></defs><path d="M24 8.215c-3.93 0-7.11-1.016-7.11-2.277v12.07c0 1.226 3.13 2.242 7.02 2.258H24c3.93 0 7.11-1.012 7.11-2.258V5.938c0 1.261-3.18 2.277-7.11 2.277" fill="url(#1406__1403__437__434__282__279__17__14__286__283__281__278__11__8__201__198__99__96__175__172__17__14__azure-redis_svg__svg/azure-redis.svg339__svg/azure-redis.svg333__azure-redis-lp-0)"/><path d="M31.11 5.938c0 1.261-3.18 2.277-7.11 2.277s-7.11-1.016-7.11-2.277c0-1.262 3.18-2.258 7.11-2.258s7.11 1.011 7.11 2.258" fill="rgb(90.980392%, 90.980392%, 90.980392%)"/><path d="M29.457 5.762c0 .797-2.453 1.437-5.457 1.437s-5.457-.64-5.457-1.437c0-.801 2.453-1.442 5.457-1.442s5.457.64 5.457 1.442" fill="rgb(31.372549%, 90.196078%, 100%)"/><path d="M24 6.098a15.363 15.363 0 0 0-4.32.535 13.94 13.94 0 0 0 4.32.566 13.91 13.91 0 0 0 4.32-.566A15.363 15.363 0 0 0 24 6.098" fill="rgb(19.607843%, 74.509804%, 86.666667%)"/><path d="M8 8.215C4.07 8.215.89 7.199.89 5.938v12.07c0 1.226 3.13 2.242 7.11 2.258 3.93 0 7.11-1.012 7.11-2.258V5.938c0 1.261-3.18 2.277-7.11 2.277" fill="url(#1407__1404__438__435__283__280__18__15__287__284__282__279__12__9__202__199__100__97__176__173__18__15__azure-redis_svg__svg/azure-redis.svg341__svg/azure-redis.svg335__azure-redis-lp-1)"/><path d="M15.11 5.938c0 1.261-3.18 2.277-7.11 2.277S.89 7.199.89 5.938C.89 4.676 4.07 3.68 8 3.68s7.11 1.011 7.11 2.258" fill="rgb(90.980392%, 90.980392%, 90.980392%)"/><path d="M13.457 5.762c0 .797-2.453 1.437-5.457 1.437s-5.457-.64-5.457-1.437C2.543 4.96 4.996 4.32 8 4.32s5.457.64 5.457 1.442" fill="rgb(31.372549%, 90.196078%, 100%)"/><path d="M8 6.098a15.363 15.363 0 0 0-4.32.535A13.94 13.94 0 0 0 8 7.199a13.91 13.91 0 0 0 4.32-.566A15.363 15.363 0 0 0 8 6.098" fill="rgb(19.607843%, 74.509804%, 86.666667%)"/><path d="M16 16.266c-3.93 0-7.11-1.012-7.11-2.274v12.07c0 1.247 3.13 2.239 7.02 2.258H16c3.93 0 7.11-1.011 7.11-2.258v-12.07c0 1.262-3.18 2.274-7.11 2.274" fill="url(#1408__1405__439__436__284__281__19__16__288__285__283__280__13__10__203__200__101__98__177__174__19__16__azure-redis_svg__svg/azure-redis.svg343__svg/azure-redis.svg337__azure-redis-lp-2)"/><path d="M23.11 13.992c0 1.262-3.18 2.274-7.11 2.274s-7.11-1.012-7.11-2.274 3.18-2.258 7.11-2.258 7.11 1.012 7.11 2.258" fill="rgb(90.980392%, 90.980392%, 90.980392%)"/><path d="M21.457 13.813c0 .8-2.453 1.44-5.457 1.44s-5.457-.64-5.457-1.44c0-.801 2.453-1.368 5.457-1.368s5.457.64 5.457 1.438" fill="rgb(31.372549%, 90.196078%, 100%)"/><path d="M16 14.223a15.521 15.521 0 0 0-4.32.53c1.406.395 2.863.563 4.32.5 1.46.04 2.918-.151 4.32-.57a15.48 15.48 0 0 0-4.32-.46" fill="rgb(19.607843%, 74.509804%, 86.666667%)"/></svg>
